X:0680
T:Bologna's March.
M:C
L:1/8
Q:1/2=84
I: :: ::
N:first note printed as a quaver
N:initial rest added to second part
N:bar 14 printed |fagb  a3 g2|
Z:Jack Campin * www.campin.me.uk * 2009
K:D
A2|d4     cdec|d2d>d d2e2|   f4                    ef`ge|f2f>f f2
e2|dcde   f2ed|cAce  a2e2|  (f/a/^g/a/) (g/f/e/d/) c2TB2|A2A>A A2:|
z2|a4     fdfa|gabg  e4  |   g4                    ec`eg|fgaf  d2
zA|d>fe>g f2ze|fagb  a3 g|(3(fga)        b(a/g/)   f2 e2|d2d>d d2:|
<end>
<start>
